X: 5067
T: Bridal, The
R: jig
M: 6/8
K: Gmajor
|:~G3 BGB|def ~g3|ecA dBG|FAG FED|
~G3 BGB|def ~g3|ecA dBG|1 FEF G2D:|2 FEF G2A||
|:Bee edB|def g2a|bgb afa|~g3 fdA|
Bee edB|def g2a|bgb afa|1 ged e2A:|2 ged edB||

